X:1
T:Amour et mort
T:Laurent Bonard
T:Source : Livre VIII de 25 chansons nouvelles à 4 parties---Paris---N.du Chemin---1550. Editor : André Vierendeels (25/03/18). Notes : Original clefs : C1, C3, C4, F4 Original note values have been halved Editorial accidentals above the staff
T:Amour et mort
T:©
T:©
T:©
C:Laurent Bonard
Z:©
%%score [ 1 [ 2 3 ] 4 ]
L:1/8
Q:1/4=120
M:2/2
K:F
V:1 treble nm="Soprano" snm="S"
V:2 treble-8 nm="Tenor 1" snm="T 1"
V:3 treble-8 nm="Tenor 2" snm="T 2"
V:4 bass nm="Bass" snm="B"
V:1
 A8 | B3 A G2 F2- | F2 ED E2 G2 | G2 G2 c3 B | A2 G2 F4 | E4 z2 c2 | c2 c2 A4- | A2 A2 A3 G | %8
w: A-|mour _ _ et|_ _ _ mort ont|faict u- ne'al- li-|an- * *|ce, en|con- spi- rant|_ mon to- tal|
w: A-|mour _ _ me|_ _ _ met hors|de tou- t'es- pe-|ran- * *|ce, et|mort me veult|_ al- le- *|
 F2 F2 E2 D2- | DCDE F2 ED | CDEF GF F2- | F2 E2 F4 :| d8 | c2 B2 A4 | z2 A2 B2 c2 | %15
w: de- tri- * *|||* * ment,|mais|si ie puis|in- ven- ter|
w: * ger as- pre-|||* * ment,||||
"^-natural" d2 c4 B2 | c2 c2 B2 G2 | A2 F2 G2 B2 | A2 GF E2 F2- | F2 E2 DEFD | E4 z4 |: A8 | %22
w: seu- le- *|ment, l'art et moy-|en, de cest a-|mour _ _ _ con-|* * fon- * * *|dre,|ie|
w: |||||||
 B3 A G2 F2- | F2 ED E2 G2 | G2 G2 c3 B | A2 G2 F4 | E4 z2 c2 | c2 c2 A4- | A2 A2 A3 G | %29
w: me _ _ tien-|* * * dray, a-|lors si seu- *|* * re-|ment, que|ie pour- ray|_ à tou- te|
w: |||||||
 F2 F2 E2 D2- | DCDE F2 ED | CDEF GF F2- |[M:2/4] F2 E2 |[M:2/2] F8 :| %34
w: mort res- pon- *||||dre.|
w: |||||
V:2
 f8 | f4 _e2 c2 | c8 | z2 e2 e2 e2 | f2 e2 d4 | G2 G2 G2 G2 | A4 z2 f2 | f2 f2 c2 c2 | d4 c2 B2- | %9
w: A-|mour et _|mort|ont faict u-|ne'al- li- an-|ce, en con- spi-|rant, en|con- spi- rant mon|to- tal de-|
w: A-|mour me _|met|hors de tou-|te'es- pe- ran-|ce, et mort me|veult, et|mort me veult al-|le- ger as-|
 BAFG AB c2 | G2 c2 d2 B2 | c4 c4 :| f8 | f2 d2 d2 d2 | d3 c B2 A2 | G8 | z2 c2 d2 c2 | c4 z2 G2 | %18
w: ||tri- ment,|mais|si ie puis in-|ven- ter seu- le-|ment,|l'art et moy-|en, de|
w: ||pre- ment,|||||||
 A2 B2 c2 d2- | dc c4 B2 | c4 z4 |: f8 | f4 _e2 c2 | c8 | z2 e2 e2 e2 | f2 e2 d4 | G2 G2 G2 G2 | %27
w: cest a- mour con-|* * fon- *|dre,|ie|me tien- *|dray,|a- lors si|seu- * re-|ment, que ie pour-|
w: |||||||||
 A4 z2 f2 | f2 f2 c2 c2 | d4 c2 B2- | BAFG AB c2 | G2 c2 d2 B2 |[M:2/4] c4 |[M:2/2] c8 :| %34
w: ray, que|ie pour- ray à|tou- te mort|_ _ _ _ _ _ _|res- pon- * *||dre.|
w: |||||||
V:3
 c8 | d3 c B2 A2 | G2 G2 G2 G2 | c3 B A2 G2 | AB c4 B2 | c8 | z2 c2 c2 c2 | A6 A2 | B3 A G2 G2 | %9
w: A-|mour _ _ et|mort ont faict u-|ne'al- * * li-|an- * * *|ce,|en con- spi-|rant mon|to- tal de- tri-|
w: A-|mour _ _ me|met hors de tou-|t'es- * * spe-|ran- * * *|ce,|et mort me|veult al-|le- * ger as-|
 F2 F3 ECD | EFGA BAGF | G2 G2 F4 :| B8 | A2 G2 F2 F2 | B2 A2 G2 F2- | F2 E2 D4 | z2 F2 F2 F2 | %17
w: ment, de- * * *||* tri- ment,|mais|si ie puis in-|ven- * ter seu-|* le- ment,|l'art et moy-|
w: pre- ment, as- * *||* pre- ment,||||||
 F2 A2 G4 | z2 F2 G2 B2 | A2 G2 F4 | G4 z4 |: c8 | d3 c B2 A2 | G2 G2 G2 G2 | c3 B A2 G2 | %25
w: en, de cest|a- mour con-|fon- * *|dre,|ie|me _ _ tien-|dray a- lors si|seu- * * re-|
w: ||||||||
 AB c4 B2 | c8 | z2 c2 c2 c2 | A6 A2 | B3 A G2 G2 | F2 F3 ECD | EFGA BAGF |[M:2/4] G4 | %33
w: |ment,|que ie pour-|ray à|tou- * * te|mort res- pon- * *|||
w: ||||||||
[M:2/2] F8 :| %34
w: dre.|
w: |
V:4
 F,8 | B,,4 _E,2 F,2 | C,8 | C,4 C,2 C,2 | F,2 C,2 D,4 | C,2 C,2 C,2 C,2 | F,,8 | z2 F,2 F,2 F,2 | %8
w: A-|mour, et _|mort|ont faict u-|ne'al- li- an-|ce, en con- spi-|rant,|en con- spi-|
w: A-|mour me _|met|hors de tou-|t'es- pe- ran-|ce, et mort me|veult|et mort me|
 B,,2 B,,2 C,2 G,,2 | B,,3 A,, F,,G,,A,,B,, | C,2 C,2 B,,2 D,2 | C,4 F,,4 :| B,,8 | %13
w: rant mon to- tal|de- * * * * *||tri- ment,|mais|
w: veult al- le- ger|as- * * * * *||pre- ment,||
 F,,2 G,,2 D,4- | D,4 z2 A,,2 | B,,2 C,2 G,,2 G,,2 | C,2 F,,2 B,,2 C,2 | F,,2 F,2 F,2 E,2 | %18
w: si ie puis|_ in-|ven- ter seu- le-|ment, l'art et moy-|en, l'art et moy-|
w: |||||
 F,2 D,2 C,2 B,,2 | F,2 C,2 D,4 | C,4 z4 |: F,8 | B,,4 _E,2 F,2 | C,8 | C,4 C,2 C,2 | F,2 C,2 D,4 | %26
w: en de cest a-|mour con- fon-|dre,|ie|me tien- *|dray|a- lors si|seu- * re-|
w: ||||||||
 C,2 C,2 C,2 C,2 | F,,8 | z2 F,2 F,2 F,2 | B,,2 B,,2 C,2 G,,2 | B,,3 A,, F,,G,,A,,B,, | %31
w: ment, que ie pour-|ray,|que ie pour-|ray à tou- te|mort res- on- * * *|
w: |||||
 C,2 C,2 B,,2 D,2 |[M:2/4] C,4 |[M:2/2] F,,8 :| %34
w: ||dre.|
w: |||

